!!!COM: Johann Sebastian Bach
!!!OPR: Orgelbuechlein
!!!OTA: Little Organ Book
!!!OTL: In dulci jubilo
!!!ONB: Canone doppio all'Ottava a 2 Clav. e Pedale.
!!!ONB: Double Canon; Cantus Firmus is in soprano and bass;
!!!ONB: Alto & tenor have a separate canon.
!!!SCT: BWV 608
!!!YOR: Neue Bach Ausgabe, Series IV, Vol. 1, pp. 16-17.
!! N.B. Canon stops at measure 25.
**kern	**kern	**kern	**kern
*CF	*conseq	*guida	*CF
*k[f#c#g#]	*k[f#c#g#]	*k[f#c#g#]	*k[f#c#g#]
*A:	*A:	*A:	*A:
*M3/2	*M3/2	*M3/2	*M3/2
=1	=1	=1	=1
1.r	1.r	6r	2a
.	.	6g#	.
.	.	6f#	.
.	.	6e	2a
.	.	6f#	.
.	.	6d	.
.	.	6c#	2a
.	.	6d	.
.	.	6B	.
=2	=2	=2	=2
2A	6r	6A	1cc#
.	6G#	6b	.
.	6F#	6a	.
2A	6E	6g#	.
.	6F#	6a	.
.	6D	6f#	.
2A	6C#	6e	2dd
.	6D	6f#	.
.	6BB	6d	.
=3	=3	=3	=3
1c#	6AA	4a	1ee
.	6B	.	.
.	.	4a	.
.	6A	.	.
.	6G#	4a	.
.	6A	.	.
.	.	4a	.
.	6F#	.	.
2d	6E	4a	2ff#
.	6F#	.	.
.	.	4a	.
.	6D	.	.
=4	=4	=4	=4
1e	4A	6cc#	1ee
.	.	6ee	.
.	4A	.	.
.	.	6dd	.
.	4A	6cc#	.
.	.	6dd	.
.	4A	.	.
.	.	6b	.
2f#	4A	6a	2r
.	.	6b	.
.	4A	.	.
.	.	6g#	.
=5	=5	=5	=5
1e	6c#	6a	2a
.	6e	6g#	.
.	6d	6f#	.
.	6c#	6e	2a
.	6d	6f#	.
.	6B	6d	.
2r	6A	6c#	2a
.	6B	6d	.
.	6G#	6B	.
=6	=6	=6	=6
2A	6A	6A	1cc#
.	6G#	6b	.
.	6F#	6a	.
2A	6E	6g#	.
.	6F#	6a	.
.	6D	6f#	.
2A	6C#	6e	2dd
.	6D	6f#	.
.	6BB	6d	.
=7	=7	=7	=7
1c#	6AA	4a	1ee
.	6B	.	.
.	.	4a	.
.	6A	.	.
.	6G#	4a	.
.	6A	.	.
.	.	4a	.
.	6F#	.	.
2d	6E	4a	2ff#
.	6F#	.	.
.	.	4a	.
.	6D	.	.
=8	=8	=8	=8
1e	4A	6cc#	1ee
.	.	6ee	.
.	4A	.	.
.	.	6dd	.
.	4A	6cc#	.
.	.	6dd	.
.	4A	.	.
.	.	6b	.
2f#	4A	6a	2r
.	.	6b	.
.	4A	.	.
.	.	6g#	.
=9	=9	=9	=9
1e	6c#	6a	1ee
.	6e	6cc#	.
.	6d	6b	.
.	6c#	6a	.
.	6d	6b	.
.	6B	6cc#	.
2r	6A	6dd	2ff#
.	6B	6cc#	.
.	6G#	6dd	.
=10	=10	=10	=10
1e	6A	6cc#	1ee
.	6c#	6ee	.
.	6B	6dd	.
.	6A	6cc#	.
.	6B	6dd	.
.	6c#	6b	.
2f#	6d	6a	2dd
.	6c#	6b	.
.	6d	6g#	.
=11	=11	=11	=11
1e	6A	6a	2.cc#
.	6e	6g#	.
.	6d	6f#	.
.	6c#	6e	.
.	6d	6f#	.
.	.	.	4dd
.	6B	6d	.
2d	6A	4e	4cc#
.	6B	.	.
.	.	4e#	4b
.	6G#	.	.
=12	=12	=12	=12
2.c#	6A	6f#	2a
.	6G#	6b	.
.	6F#	6a	.
.	6E	6g#	2r
.	6F#	6a	.
4d	.	.	.
.	6D	6f#	.
4c#	4E	6e	2r
.	.	6f#	.
4B	4E#	.	.
.	.	6d	.
=13	=13	=13	=13
2A	6F#	4c#	2a
.	6B	.	.
.	.	4c#	.
.	6A	.	.
2r	6G#	6d	2b
.	6A	6c#	.
.	6F#	6d	.
2r	6E	6e	2b
.	6F#	6d	.
.	6D	6e	.
=14	=14	=14	=14
2A	4C#	6A	2cc#
.	.	6e	.
.	4C#	.	.
.	.	[6a	.
2B	6D	6a]	[2b
.	6C#	6b	.
.	6D	6a	.
2B	6E	6g#	2b]
.	6D	6f#	.
.	6E	6g#	.
=15	=15	=15	=15
1c#	6AA	6a	1a
.	6E	6b	.
.	[6A	6g#	.
.	6A]	6f#	.
.	6B	6g#	.
.	6A	6f#	.
2B	6G#	6e	2b
.	6F#	6f#	.
.	6G#	6d	.
=16	=16	=16	=16
1A	6A	4c#	1cc#
.	6B	.	.
.	.	4e	.
.	6G#	.	.
.	6F#	4A	.
.	6G#	.	.
.	.	2a	.
.	6F#	.	.
2B	6E	.	2r
.	6F#	.	.
.	.	4g#	.
.	6D	.	.
=17	=17	=17	=17
1c#	4C#	6a	2ee
.	.	6e	.
.	4E	.	.
.	.	6g#	.
.	4AA	6a	2ee
.	.	6b	.
.	2A	.	.
.	.	6cc#	.
2r	.	6dd	2ff#
.	.	6cc#	.
.	4G#	.	.
.	.	6dd	.
=18	=18	=18	=18
2e	6A	6cc#	1ee
.	6E	6ee	.
.	6G#	6dd	.
2e	6A	6cc#	.
.	6B	6dd	.
.	6c#	6b	.
2f#	6d	6a	2dd
.	6c#	6b	.
.	6d	6g#	.
=19	=19	=19	=19
1e	6A	6a	2.cc#
.	6e	6g#	.
.	6d	6f#	.
.	6c#	6e	.
.	6d	6f#	.
.	.	.	4dd
.	6B	6d	.
2d	6A	4e	4cc#
.	6B	.	.
.	.	4e#	4b
.	6G#	.	.
=20	=20	=20	=20
2.c#	6A	6f#	2a
.	6G#	6b	.
.	6F#	6a	.
.	6E	6g#	2r
.	6F#	6a	.
4d	.	.	.
.	6D	6f#	.
4c#	4E	6e	2r
.	.	6f#	.
4B	4E#	.	.
.	.	6d	.
=21	=21	=21	=21
2A	6F#	4c#	2a
.	6B	.	.
.	.	4c#	.
.	6A	.	.
2r	6G#	6d	2b
.	6A	6c#	.
.	6F#	6d	.
2r	6E	6e	2b
.	6F#	6d	.
.	6D	6e	.
=22	=22	=22	=22
2A	4C#	6A	2cc#
.	.	6e	.
.	4C#	.	.
.	.	[6a	.
2B	6D	6a]	[2b
.	6C#	6b	.
.	6D	6a	.
2B	6E	6g#	2b]
.	6D	6f#	.
.	6E	6g#	.
=23	=23	=23	=23
1c#	6AA	6a	1a
.	6E	6b	.
.	[6A	6g#	.
.	6A]	6f#	.
.	6B	6g#	.
.	6A	6f#	.
2B	6G#	6e	2b
.	6F#	6f#	.
.	6G#	6d	.
=24	=24	=24	=24
1A	6A	6c#	2cc#
.	6B	6d	.
.	6G#	6e	.
.	6F#	6f#	2r
.	6G#	6e	.
.	6F#	6f#	.
2B	6E	6g#	2r
.	6F#	6f#	.
.	6D#	6g#	.
!! Canon stops at this point.
=25	=25	=25	=25
2c#	6E	3A#	1f#
.	6F#	.	.
.	6E	6A#	.
2r	6Dn	3B	.
.	6E	.	.
.	6C#	6c#	.
2r	6BB	6d	2f#
.	6C#	6e	.
.	6AAn	6c#	.
=26	=26	=26	=26
1.r	6EE	3d	1g#
.	6E	.	.
.	6D	6B	.
.	6C#	6e	.
.	6D	6f#	.
.	6BB	6d	.
.	6AA	6c#	2g#
.	6BB	6d	.
.	6GG#	6B	.
=27	=27	=27	=27
1F#	6FF#	4c#	2.a
.	6F#	.	.
.	.	4c#	.
.	6E	.	.
.	6D	4f#	.
.	6E	.	.
.	.	4g#	4b
.	6C#	.	.
2F#	6BB	4a	4cc#
.	6C#	.	.
.	.	[4b	4dd
.	6AA	.	.
=28	=28	=28	=28
1G#	6GG#	3b]	1.ee
.	6G#	.	.
.	6F#	6a	.
.	6E	6g#	.
.	6F#	6a	.
.	6D	6f#	.
2G#	6C#	[2e	.
.	6D	.	.
.	6BB	.	.
=29	=29	=29	=29
2.A	2AA	6e]	1cc#
.	.	6cc#	.
.	.	6b	.
.	2E	6a	.
.	.	6b	.
4B	.	.	.
.	.	6g#	.
4c#	[2A	6f#	2cc#
.	.	6g#	.
4d	.	.	.
.	.	6e	.
=30	=30	=30	=30
1.e	6A]	3d	1b
.	6B	.	.
.	6A	6B	.
.	6G#	6e	.
.	6A	6f#	.
.	6F#	6d	.
.	[2G#	6c#	2b
.	.	6d	.
.	.	6B	.
=31	=31	=31	=31
1c#	6G#]	4e	[2a
.	6A	.	.
.	.	4e#	.
.	6G#	.	.
.	6F#	4f#	6a]
.	6G#	.	6b
.	.	4g#	.
.	6E#	.	6cc#
2c#	[2F#	2a	6dd
.	.	.	6een
.	.	.	6ff#
=32	=32	=32	=32
1B	6F#]	2d	[2g#
.	6G#	.	.
.	6F#	.	.
.	6E#	2c#	6g#]
.	6F#	.	6a
.	6D#	.	6b
2B	4E#	2g#	6cc#
.	.	.	6dd#
.	4C#	.	.
.	.	.	6ee#
=33	=33	=33	=33
[1.A	6FF#	2f#	2ff#
.	6A	.	.
.	6Gn	.	.
.	6F#	6r	2r
.	6G#	6a	.
.	6E	6gn	.
.	6D	6f#	2r
.	6E	6g	.
.	6C#	6e	.
=34	=34	=34	=34
1.A_	[1.D	4f#	6r
.	.	.	6aa
.	.	4r	.
.	.	.	6ggn
.	.	4r	6ff#
.	.	.	6gg
.	.	4gn	.
.	.	.	6ee
.	.	4f#	6dd
.	.	.	6ee
.	.	4e	.
.	.	.	6cc#
=35	=35	=35	=35
1.A_	6D]	[1.f#	[1.dd
.	6E	.	.
.	6D	.	.
.	6C#	.	.
.	6D	.	.
.	6BB	.	.
.	6AA	.	.
.	6BB	.	.
.	6GG#	.	.
*^	*	*	*
=36	=36	=36	=36	=36
2r	1.A_	[1.AA	4f#]	6dd]
.	.	.	.	6ee
.	.	.	4f#	.
.	.	.	.	6dd
4r	.	.	4e	6cc#
.	.	.	.	6dd
4F#	.	.	4d	.
.	.	.	.	6b
4E	.	.	4c#	6a
.	.	.	.	6b
4D	.	.	4B	.
.	.	.	.	6g#
=37	=37	=37	=37	=37
1.E;	1.A;]	1.AA;]	1.c#;	1.a;
==	==	==	==	==
*-	*-	*-	*-	*-
!!!CDT: 1685/3//-1750/7/28
!!!OCY: Deutschland
!!!ODT: 1717
!!!AFR: organ chorale
!!!AST: polyphony
!!!AMT: simple triple
!!!SCA: Bach-Werke-Verzeichnis
!!!AIN: organ
!!!YEP: David Huron and Denis Collins
!!!YEN: Canada
!!!EEV: 1.0
!!!RDT: 1995 April 29
!!!YED: 1995 August 31
